X:1
T:Title
%%score { ( 1 3 ) | ( 2 4 ) }
L:1/8
M:4/4
K:D
V:1 treble nm="Grand Piano"
V:3 treble 
V:2 bass 
V:4 bass 
V:1
 [DA]4 [DA]2 [DB]2 | A2 G2 F2 B2 | [DA]4 [DF]4 | [CE]4 [DF]2 [CG]2 | [DA]4 [DB]2 [Ec]2 | %5
 [Fd]4 c>B A2 | [DA]4 [B,^G]4 | [CA]8 | [FA]3 [EG] [DF]2 [EG]2 | [FA]3 [GB] [FA]2 [EG]2 | %10
 [DF]2 [EG]2 [FA]2 [GB]2 | [FA]6 [FA]2 | [GB]2 [FA]2 [EG]2 [DF]2 | [CE]3 [DF] [CE]2 [GB]2 | %14
 [GB]2 [FA]2 [FA][EG] [DF]2 | [DF]4 [CE]2 [DA]2 | B2 A2 B2 [Ac]2 | A4 z4 | [DF]4 [CE]4 | D8 | %20
[M:3/4] [Fd]2 [Fd]2 [Fd]2 | [Ec]4 [EA]2 | A4 z2 | [EA]4 [EA]2 | [FA]2 z2 [DA]2 | [DB]2 z2 [GB]2 | %26
 [Ec]2 z2 [Ec]2 | [Fd]2 z2 [CA]2 | [DA]4 [FA]2 | [DB]4 [Ge]2 | [Ec]4 [Ec]2 | [Fd]6 |] %32
V:2
 [D,F,]4 [D,F,]2 [D,G,]2 | F,2 B,2 A,2 G,2 | [D,F,]4 [D,A,]4 | [A,,A,]4 A,2- [E,A,]2 | %4
 [F,A,]4 [E,G,]4 | z4 A,4 | [D,F,]4 E,4 | [A,,E,]8 | D,4 D,2 D,2 | D,6 D,2 | D,4 D,4 | D,6 D,2 | %12
 D,4 C,2 D,2 | A,,6 G,,2 | D,4 D,4 | A,,6 [F,A,]2 | G,2 [F,A,]2 [E,G,]4 | %17
 [D,F,]3 [E,G,] [F,A,]2 [G,B,]2 | A,4 [A,,G,]4 | [D,F,]8 |[M:3/4] z2 A,2 A,2 | A,4 [C,A,]2 | %22
 D2 z2 z2 | [A,,C]4 [A,,C]2 | D2 z2 =C2 | B,2 z2 B,2 | A,2 z2 A,2 | A,2 z2 z2 | z2 z2 .D2 | %29
 [G,B,]4 [E,B,]2 | A,4 [A,,A,]2 | [D,A,]6 |] %32
V:3
 x8 | D4 D4 | x8 | x8 | x8 | z4 E4 | x8 | x8 | x8 | x8 | x8 | x8 | x8 | x8 | x8 | x8 | D4 z4 | %17
 d3- [Gd-] [Fd]2 [EG]2 | x8 | x8 |[M:3/4] x6 | x6 | F2 E2 [E^G]2 | x6 | x6 | x6 | x6 | x6 | x6 | %29
 x6 | x6 | x6 |] %32
V:4
 x8 | D,4 D,4 | x8 | z4 D,2 z2 | x8 | [D,F,]4 A,,>B,, C,2 | x8 | x8 | x8 | x8 | x8 | x8 | x8 | x8 | %14
 x8 | x8 | x8 | x8 | x8 | x8 |[M:3/4] [D,A,]2 D,E, F,G, | x6 | D,B,, [E,C]2 [E,B,]2 | x6 | %24
 D,C, D,E, F,D, | G,F, E,F, G,E, | z ^G, A,=G, F,E, | D,F, A,G, [F,A,][E,G,] | [D,F,]4 D,-[D,=C] | %29
 x6 | x6 | x6 |] %32

